X: 38448
T: Staten Island
R: hornpipe
M: 4/4
K: Dmajor
|:AG|FDFG A2Bc|defd A2Bc|d2GB A2FA|G2E2 E2AG|
FDFG A2Bc|defd A2Bc|d2d2 efge|f2d2 d2:|
|:fg|a2fa g2eg|f2df e2A2|=c2c2 efge|=c2c2 efge|
agfa gfeg|fedf e2A2|d2d2 efge|f2d2 d2:|

